src/food-drink/dishware/1F374.svg

<svg id="emoji" viewBox="0 0 72 72" xmlns="http://www.w3.org/2000/svg">
  <g id="grid">
    <path fill="#b3b3b3" d="M68,4V68H4V4H68m4-4H0V72H72V0Z"/>
    <path fill="none" stroke="#00a5ff" stroke-miterlimit="10" stroke-width="0.1" d="M12.923,10.9583H59.0769A1.9231,1.9231,0,0,1,61,12.8814V59.0352a1.9231,1.9231,0,0,1-1.9231,1.9231H12.9231A1.9231,1.9231,0,0,1,11,59.0352V12.8813A1.923,1.923,0,0,1,12.923,10.9583Z"/>
    <rect x="16" y="4" rx="2.2537" width="40" height="64" fill="none" stroke="#00a5ff" stroke-miterlimit="10" stroke-width="0.1"/>
    <rect x="16" y="4" rx="2.2537" width="40" height="64" transform="translate(72) rotate(90)" fill="none" stroke="#00a5ff" stroke-miterlimit="10" stroke-width="0.1"/>
    <circle cx="36" cy="36" r="29" fill="none" stroke="#00a5ff" stroke-miterlimit="10" stroke-width="0.1"/>
  </g>
  <g id="color">
    <path fill="#D0CFCE" stroke="none" stroke-miterlimit="10" stroke-width="2" d="M32.0706,26.2961 c0-5.9431-5.1204-12.161-5.1204-10.2961s0.9471,26.6324,0.9471,26.6324l-0.9471,16.1963c0,1.1046,0.8954,2,2,2s2-0.8954,2-2 l-0.5289-16.2893C30.4212,42.5394,32.0706,32.2392,32.0706,26.2961z"/>
    <path fill="#D0CFCE" stroke="none" stroke-linecap="round" stroke-linejoin="round" stroke-miterlimit="10" stroke-width="2" d="M45.9384,16.7398c0,0,0.1115,4.158,0.1115,8.1058c0,2.9609-0.8993,4.8203-2.1809,5.565l0,0l0.0285,28.4181c0,1.1046-0.8954,2-2,2 s-2-0.8954-2-2l0.8108-28.4123l0,0c-1.287-0.7408-2.191-2.6022-2.191-5.5708c0-3.9478,0.1115-8.1058,0.1115-8.1058"/>
  </g>
  <g id="hair"/>
  <g id="skin"/>
  <g id="skin-shadow"/>
  <g id="line">
    <path fill="none" stroke="#000000" stroke-miterlimit="10" stroke-width="2" d="M32.0706,26.2961 c0-5.9431-5.1204-12.161-5.1204-10.2961s0.9471,26.6324,0.9471,26.6324l-0.9471,16.1963c0,1.1046,0.8954,2,2,2s2-0.8954,2-2 l-0.5289-16.2893C30.4212,42.5394,32.0706,32.2392,32.0706,26.2961z"/>
    <path fill="none" stroke="#000000" stroke-linecap="round" stroke-linejoin="round" stroke-miterlimit="10" stroke-width="2" d="M45.9384,16.7398c0,0,0.1115,4.158,0.1115,8.1058c0,2.9609-0.8993,4.8203-2.1809,5.565l0,0l0.0285,28.4181c0,1.1046-0.8954,2-2,2 s-2-0.8954-2-2l0.8108-28.4123l0,0c-1.287-0.7408-2.191-2.6022-2.191-5.5708c0-3.9478,0.1115-8.1058,0.1115-8.1058"/>
    <line x1="42.2835" x2="42.2835" y1="16.7398" y2="26.3247" fill="none" stroke="#000000" stroke-linecap="round" stroke-linejoin="round" stroke-miterlimit="10" stroke-width="2"/>
  </g>
</svg>

<svg viewBox="0 0 72 72" xmlns="http://www.w3.org/2000/svg"><path fill="#b3b3b3" d="M68 4v64H4V4h64m4-4H0v72h72V0z"/><path fill="none" stroke="#00a5ff" stroke-miterlimit="10" stroke-width=".1" d="M12.923 10.958h46.154A1.923 1.923 0 0161 12.881v46.154a1.923 1.923 0 01-1.923 1.923H12.923A1.923 1.923 0 0111 59.035V12.881a1.923 1.923 0 011.923-1.923z"/><rect x="16" y="4" rx="2.254" width="40" height="64" fill="none" stroke="#00a5ff" stroke-miterlimit="10" stroke-width=".1"/><rect x="16" y="4" rx="2.254" width="40" height="64" transform="rotate(90 36 36)" fill="none" stroke="#00a5ff" stroke-miterlimit="10" stroke-width=".1"/><circle cx="36" cy="36" r="29" fill="none" stroke="#00a5ff" stroke-miterlimit="10" stroke-width=".1"/><path d="M32.07 26.296c0-5.943-5.12-12.16-5.12-10.296s.947 26.632.947 26.632L26.95 58.83a2 2 0 104 0l-.529-16.29s1.65-10.3 1.65-16.243zm13.868-9.556s.112 4.158.112 8.106c0 2.96-.9 4.82-2.181 5.565h0l.029 28.418a2 2 0 11-4 0l.81-28.413h0c-1.287-.74-2.19-2.602-2.19-5.57 0-3.948.11-8.106.11-8.106m3.655 0v9.585" stroke-linecap="round" stroke-miterlimit="10" stroke-width="6" stroke="#fff" fill="none" stroke-linejoin="round"/><path d="M32.07 26.296c0-5.943-5.12-12.16-5.12-10.296s.947 26.632.947 26.632L26.95 58.83a2 2 0 104 0l-.529-16.29s1.65-10.3 1.65-16.243zm13.868-9.556s.112 4.158.112 8.106c0 2.96-.9 4.82-2.181 5.565l.029 28.418a2 2 0 11-4 0l.81-28.413c-1.287-.74-2.19-2.602-2.19-5.57 0-3.948.11-8.106.11-8.106" fill="#D0CFCE"/><g fill="none" stroke="#000" stroke-miterlimit="10" stroke-width="2"><path d="M32.07 26.296c0-5.943-5.12-12.16-5.12-10.296s.947 26.632.947 26.632L26.95 58.83a2 2 0 104 0l-.529-16.29s1.65-10.3 1.65-16.243z"/><path stroke-linecap="round" stroke-linejoin="round" d="M45.938 16.74s.112 4.158.112 8.106c0 2.96-.9 4.82-2.181 5.565h0l.029 28.418a2 2 0 11-4 0l.81-28.413h0c-1.287-.74-2.19-2.602-2.19-5.57 0-3.948.11-8.106.11-8.106m3.655 0v9.585"/></g></svg>
